X:3
%%pagewidth 9.2in
T:Robin Hood and the Pinder of Wakefield
M:6/8
L:1/8
K:F
%%score 1 2
V:1 clef-treble
V:2 clef-bass octave=-1
[V:1]A|[Fd]2d d2d|[Gc]dB A2[Fd]|[Fd]2d [Bd]>[Ac][GB]|
w:In Wakefield there lives a jol-ly Pin-der, In Wake-field all on a
w:There's neither Knight nor Squire, says the Pin-der, Nor Baron that is* so
[V:2]z|[DA]6|[Ec]3 [Fc]2B,|B,3 G,3|
[V:1][FA]3-[FA]2 "^Chorus."d|d2d d>cB|A3-A2:||"^Solo."A|[EA]2A A2A|
w:green,* In Wake-field all on a green;* Dare make~a tres-pass to~the 
w:bold,* Nor Baron that is* so bold,|||
[V:2]DA,F, D,2[Dd]|[Dd]2[Dd] [Dd]>[Cc][B,B]|[A,A]3-[A,A]2:||z|^C6|
[V:1][FA]2B [Ed]2[DG]|[FA]2A [EG]>[DF][^CE]|D3-D2"^Chorus."G|A2A G>FE|D3-D2||
w:town of Wakefield, But~his pledge goes to the Pin-fold,* His pledge goes to the Pin-fold.*